src/pos-icons/map-search-outline.svg

<svg height="24" viewBox="0 0 24 24" width="24" xmlns="http://www.w3.org/2000/svg"><path d="m15.5 12c2.5 0 4.5 2 4.5 4.5 0 .88-.25 1.7-.69 2.4l3.08 3.1-1.39 1.39-3.12-3.07c-.69.43-1.51.68-2.38.68-2.5 0-4.5-2-4.5-4.5s2-4.5 4.5-4.5m0 2a2.5 2.5 0 0 0 -2.5 2.5 2.5 2.5 0 0 0 2.5 2.5 2.5 2.5 0 0 0 2.5-2.5 2.5 2.5 0 0 0 -2.5-2.5m4-12a.5.5 0 0 1 .5.5v9.31c-.58-.55-1.25-1-2-1.31v-5.8l-3 1.16v4.14c-.7.07-1.38.24-2 .5v-4.63l-4-1.4v11.66.37c0 .64.09 1.26.26 1.84l-1.26-.44-5.34 2.07-.16.03a.5.5 0 0 1 -.5-.5v-15.12c0-.23.15-.41.36-.48l5.64-1.9 6 2.1 5.34-2.07zm-15.5 3.46v11.85l3-1.16v-11.7z"/></svg>

<?xml version="1.0" encoding="UTF-8"?><!DOCTYPE svg PUBLIC "-//W3C//DTD SVG 1.1//EN" "http://www.w3.org/Graphics/SVG/1.1/DTD/svg11.dtd"><svg xmlns="http://www.w3.org/2000/svg" xmlns:xlink="http://www.w3.org/1999/xlink" version="1.1" id="mdi-map-search-outline" width="24" height="24" viewBox="0 0 24 24"><path d="M15.5,12C18,12 20,14 20,16.5C20,17.38 19.75,18.2 19.31,18.9L22.39,22L21,23.39L17.88,20.32C17.19,20.75 16.37,21 15.5,21C13,21 11,19 11,16.5C11,14 13,12 15.5,12M15.5,14A2.5,2.5 0 0,0 13,16.5A2.5,2.5 0 0,0 15.5,19A2.5,2.5 0 0,0 18,16.5A2.5,2.5 0 0,0 15.5,14M19.5,2A0.5,0.5 0 0,1 20,2.5V11.81C19.42,11.26 18.75,10.81 18,10.5V4.7L15,5.86V10C14.3,10.07 13.62,10.24 13,10.5V5.87L9,4.47V16.13H9V16.5C9,17.14 9.09,17.76 9.26,18.34L8,17.9L2.66,19.97L2.5,20A0.5,0.5 0 0,1 2,19.5V4.38C2,4.15 2.15,3.97 2.36,3.9L8,2L14,4.1L19.34,2.03L19.5,2M4,5.46V17.31L7,16.15V4.45L4,5.46Z" /></svg>
